X: 21
T:Flat-capp,an Old Hornpipe
M:3/2
L:1/4
S:Marsden
Z:ps
K:Dmin
D/E/F/G/AFA2 | cG2CE/F/ G/E/ | D/E/F/G/ A/B/ A/F/A2 | dA2G/F/ED || 
fdgefd | gfedcA | fdgef>e | dA2G/F/ED || 
f/g/a/f/ e/f/g/e/ f/g/a/f/ | geece/f/g/e/ | d/e/f/d/ e/f/g/e/ a/g/f/e/ | dA2G/F/ E/F/ G/E/ || 
FAGBFA | cG2CE/F/ G/E/ | FAGBFA | dA2G/F/ E/F/ G/E/ || 
D/E/F/G/ A/B/ A/F/ A/B/ c/d/ | cGGCE/F/G/E/ | D/E/F/G/ A/B/A/F/ A/B/A/F/ | A/B/A/F/ A/B/A/F/ E/F/G/E/ || 
D/E/F/G/ A/B/ c/B/ A/B/c/d/ | cGGCE/F/G/E/ | DFEGFA | dA2G/F/ED || 
FAGBFA | EcGCE/F/G/E/ | DFEGFA | A,dc/A/ G/F/ E/F/G/E/ || 

